packages/icons/src/components/Icon/assets/small-outline/email-remove.svg

<svg width="16" height="16" viewBox="0 0 16 16" fill="none" xmlns="http://www.w3.org/2000/svg">
<path fill-rule="evenodd" clip-rule="evenodd" d="M2.95547 2.47388C1.87549 2.47388 1 3.34937 1 4.42934V10.9759C1 12.0559 1.87549 12.9314 2.95547 12.9314H9.8421V11.8261H2.95547C2.48591 11.8261 2.10526 11.4455 2.10526 10.9759V6.35353L6.60672 9.12366C7.23523 9.51043 8.02793 9.51043 8.65643 9.12366L9.8421 8.39402V8.36861H9.88339L13.1579 6.35353V8.36861H14.2632V4.42934C14.2632 3.34937 13.3877 2.47388 12.3077 2.47388H2.95547ZM2.10526 4.58067V4.42934C2.10526 3.95979 2.48591 3.57914 2.95547 3.57914H12.3077C12.7772 3.57914 13.1579 3.95979 13.1579 4.42934V4.58067C13.1579 4.87591 13.0047 5.15001 12.7533 5.30475L8.07717 8.18236C7.80391 8.35052 7.45925 8.35052 7.18599 8.18236L2.50988 5.30475C2.25843 5.15001 2.10526 4.87591 2.10526 4.58067Z" fill="black"/>
<path fill-rule="evenodd" clip-rule="evenodd" d="M10.7408 9.26732C10.9566 9.0515 11.3065 9.0515 11.5223 9.26732L12.7895 10.5344L14.0566 9.26732C14.2724 9.0515 14.6223 9.0515 14.8381 9.26732C15.054 9.48313 15.054 9.83304 14.8381 10.0489L13.571 11.316L14.8381 12.5831C15.054 12.7989 15.054 13.1488 14.8381 13.3646C14.6223 13.5805 14.2724 13.5805 14.0566 13.3646L12.7895 12.0975L11.5223 13.3646C11.3065 13.5805 10.9566 13.5805 10.7408 13.3646C10.525 13.1488 10.525 12.7989 10.7408 12.5831L12.0079 11.316L10.7408 10.0489C10.525 9.83304 10.525 9.48313 10.7408 9.26732Z" fill="black"/>
</svg>

<svg xmlns="http://www.w3.org/2000/svg" width="16" height="16" fill="none" viewBox="0 0 16 16">
    <path d="M2.955 2.474C1.875 2.474 1 3.349 1 4.429v6.547c0 1.08.875 1.955 1.955 1.955h6.887v-1.105H2.955a.85.85 0 0 1-.85-.85V6.354l4.502 2.77a1.96 1.96 0 0 0 2.05 0l1.185-.73v-.025h.041l3.275-2.015v2.015h1.105v-3.94c0-1.08-.875-1.955-1.955-1.955zm-.85 2.107v-.152c0-.47.38-.85.85-.85h9.353c.47 0 .85.38.85.85v.152a.85.85 0 0 1-.405.724L8.077 8.182a.85.85 0 0 1-.891 0L2.51 5.305a.85.85 0 0 1-.405-.724" clip-rule="evenodd"/>
    <path d="M10.74 9.267a.553.553 0 0 1 .782 0l1.268 1.267 1.267-1.267a.553.553 0 1 1 .781.782l-1.267 1.267 1.267 1.267a.552.552 0 1 1-.781.782l-1.267-1.267-1.268 1.267a.552.552 0 1 1-.781-.782l1.267-1.267-1.267-1.267a.553.553 0 0 1 0-.782" clip-rule="evenodd"/>
</svg>
